img/logo-facebook.svg

<svg xmlns="http://www.w3.org/2000/svg" width="8" height="15"><path fill-rule="evenodd" fill="#EFEBE4" d="M3 15V8l-3-.001V6h3V2.999C3 .661 4.182.004 6.229.004c.98 0 1.496.107 1.742.141v2.366H6.235C5.122 2.511 5 4.209 5 5v1h3l-.5 1.999H5v7L3 15z"/></svg>

<svg 
 xmlns="http://www.w3.org/2000/svg"
 xmlns:xlink="http://www.w3.org/1999/xlink"
 width="8px" height="15px">
<path fill-rule="evenodd"  fill="rgb(239, 235, 228)"
 d="M3.000,15.000 L3.000,8.000 L-0.000,7.999 L-0.000,6.000 L3.000,6.000 L3.000,2.999 C3.000,0.661 4.182,0.004 6.229,0.004 C7.209,0.004 7.725,0.111 7.971,0.145 L7.971,2.511 L6.235,2.511 C5.122,2.511 5.000,4.209 5.000,5.000 L5.000,6.000 L8.000,6.000 L7.500,7.999 L5.000,7.999 L5.000,14.999 L3.000,15.000 Z"/>
</svg>
